assets/images/facebook.svg

<svg width="12" height="21" viewBox="0 0 12 21" fill="none" xmlns="http://www.w3.org/2000/svg">
<path d="M7.65613 11.2126H11.1279L11.673 7.76286H7.65542V5.8774C7.65542 4.44431 8.13414 3.17352 9.50463 3.17352H11.7069V0.162992C11.32 0.111885 10.5016 0 8.95531 0C5.72642 0 3.83343 1.66791 3.83343 5.46784V7.76286H0.51416V11.2126H3.83343V20.6945C4.49078 20.7912 5.15661 20.8568 5.8401 20.8568C6.45791 20.8568 7.0609 20.8016 7.65613 20.7228V11.2126Z" fill="#004B98"/>
</svg>

<svg width="12" height="21" fill="none" xmlns="http://www.w3.org/2000/svg"><path d="M7.656 11.213h3.472l.545-3.45H7.655V5.877c0-1.433.48-2.703 1.85-2.703h2.202V.163C11.32.112 10.502 0 8.955 0 5.726 0 3.833 1.668 3.833 5.468v2.295H.514v3.45h3.32v9.482c.657.096 1.323.162 2.006.162.618 0 1.22-.055 1.816-.134v-9.51Z" fill="#004B98"/></svg>
